X:12
T:Clare Jig, The
T:Mug of Brown Ale, The
M:6/8
Z:Seattle
R:jig
K:ADor
gf|eAA fAA|gfg age|dBA ~G3|BGB dBd|eAA fAA|gfg age|dBd gdB|ABA A2:|
efg ~a3|aba age|dBd ~g3|bag fed|efg ~a3|aba age|dBd gdB|ABA A2 z|
efg ~a3|aba age|dBd ~g3|gba ged|efg a2b|c'2b age|dBg dBG|EAA A2||
<end>
<start>
